X: 64
T: No_68_I_am_Going_to_Marry_Another_Man.krn
N: Derived from No_68_I_am_Going_to_Marry_Another_Man.krn
%%abc-version 2.0
%%abcx-abcm2ps-target-version 5.9.1 (29 Sep 2008)
%%abc-creator hum2abc beta
%%abcx-conversion-date 2019/03/15 08:27:55
%%humdrum-veritas 3358433098
%%humdrum-veritas-data 224269511
%%linebreak <none>
%%barnumbers 0
L: 1/8
M: 2/4
K: F clef=bass
[K:clef=bass][M:2/4]CF CF/F/ [I:setbarnb 2]| 
F2GF | 
[M:3/4]CC/C/C2FC | 
A,A,/A,/ (A,3/G,/) A,G, | 
[M:2/4]G,F,F,2 | 
F,2z2 | 
F,F, F,F, | 
F,2A,G, | 
G,/F,3/ C,3/D,/ | 
C,2z2 :|]  



